build/svg/cmd/lc_alphaliststyle.svg

<?xml version="1.0" encoding="UTF-8" standalone="no"?>
<svg
   xmlns:dc="http://purl.org/dc/elements/1.1/"
   xmlns:cc="http://creativecommons.org/ns#"
   xmlns:rdf="http://www.w3.org/1999/02/22-rdf-syntax-ns#"
   xmlns:svg="http://www.w3.org/2000/svg"
   xmlns="http://www.w3.org/2000/svg"
   xmlns:sodipodi="http://sodipodi.sourceforge.net/DTD/sodipodi-0.dtd"
   xmlns:inkscape="http://www.inkscape.org/namespaces/inkscape"
   viewBox="0 0 24 24"
   version="1.1"
   id="svg10"
   sodipodi:docname="lc_alphaliststyle.svg"
   inkscape:version="0.92.5 (2060ec1f9f, 2020-04-08)"
   inkscape:export-filename="/home/jupiter007/Libreoffice yaru theme fullcolor/build/cmd/lc_alphaliststyle.png"
   inkscape:export-xdpi="96"
   inkscape:export-ydpi="96">
  <metadata
     id="metadata16">
    <rdf:RDF>
      <cc:Work
         rdf:about="">
        <dc:format>image/svg+xml</dc:format>
        <dc:type
           rdf:resource="http://purl.org/dc/dcmitype/StillImage" />
      </cc:Work>
    </rdf:RDF>
  </metadata>
  <defs
     id="defs14" />
  <sodipodi:namedview
     pagecolor="#ffffff"
     bordercolor="#666666"
     borderopacity="1"
     objecttolerance="10"
     gridtolerance="10"
     guidetolerance="10"
     inkscape:pageopacity="0"
     inkscape:pageshadow="2"
     inkscape:window-width="1920"
     inkscape:window-height="1011"
     id="namedview12"
     showgrid="true"
     showguides="false"
     inkscape:zoom="27.812867"
     inkscape:cx="-2.0182085"
     inkscape:cy="10.634036"
     inkscape:window-x="0"
     inkscape:window-y="32"
     inkscape:window-maximized="1"
     inkscape:current-layer="svg10">
    <inkscape:grid
       type="xygrid"
       id="grid823" />
  </sodipodi:namedview>
  <path
     d="M 3,3 V 5 6 8 9 H 6 C 7.108,9 8,8.108 8,7 8,6.1891 7.50311,5.502 6.8125,5.1875 6.91845,4.9817 7,4.7483 7,4.5 7,3.669 6.331,3 5.5,3 H 4 Z M 4,4 H 5.5 C 5.777,4 6,4.223 6,4.5 6,4.777 5.777,5 5.5,5 H 4 Z M 4,6 H 5.5 6 C 6.554,6 7,6.446 7,7 7,7.554 6.554,8 6,8 H 4 Z"
     id="path821"
     inkscape:connector-curvature="0"
     style="opacity:0.6;fill:#000000;stroke:#000000;stroke-width:2;stroke-linejoin:round;stroke-miterlimit:4;stroke-dasharray:none" />
  <path
     d="m 6,14 c -1.65685,0 -3,1.3432 -3,3 0,1.6569 1.34315,3 3,3 H 7 V 19 H 6 C 4.895431,19 4,18.1046 4,17 4,15.8954 4.895431,15 6,15 h 1 v -1 z"
     id="path823"
     inkscape:connector-curvature="0"
     style="opacity:0.6;fill:#000000;stroke:#000000;stroke-width:2;stroke-linejoin:round;stroke-miterlimit:4;stroke-dasharray:none" />
  <path
     style="fill:#ffffff"
     inkscape:connector-curvature="0"
     id="path4"
     d="M 3,3 V 5 6 8 9 H 6 C 7.108,9 8,8.108 8,7 8,6.1891 7.50311,5.502 6.8125,5.1875 6.91845,4.9817 7,4.7483 7,4.5 7,3.669 6.331,3 5.5,3 H 4 Z M 4,4 H 5.5 C 5.777,4 6,4.223 6,4.5 6,4.777 5.777,5 5.5,5 H 4 Z M 4,6 H 5.5 6 C 6.554,6 7,6.446 7,7 7,7.554 6.554,8 6,8 H 4 Z" />
  <path
     style="fill:#ffffff"
     inkscape:connector-curvature="0"
     id="path6"
     d="m 6,14 c -1.65685,0 -3,1.3432 -3,3 0,1.6569 1.34315,3 3,3 H 7 V 19 H 6 C 4.895431,19 4,18.1046 4,17 4,15.8954 4.895431,15 6,15 h 1 v -1 z" />
  <rect
     inkscape:export-ydpi="96"
     inkscape:export-xdpi="96"
     inkscape:export-filename="/home/jupiter007/Libreoffice yaru theme fullcolor/build/cmd/rect7303.png"
     y="5"
     x="11"
     height="2"
     width="11"
     id="rect827"
     style="opacity:1;vector-effect:none;fill:#924d8b;fill-opacity:1;stroke:none;stroke-width:2.52560878;stroke-linecap:round;stroke-linejoin:round;stroke-miterlimit:4;stroke-dasharray:none;stroke-dashoffset:0;stroke-opacity:1" />
  <rect
     style="opacity:1;vector-effect:none;fill:#924d8b;fill-opacity:1;stroke:none;stroke-width:2.52560878;stroke-linecap:round;stroke-linejoin:round;stroke-miterlimit:4;stroke-dasharray:none;stroke-dashoffset:0;stroke-opacity:1"
     id="rect829"
     width="11"
     height="2"
     x="11"
     y="16"
     inkscape:export-filename="/home/jupiter007/Libreoffice yaru theme fullcolor/build/cmd/rect7303.png"
     inkscape:export-xdpi="96"
     inkscape:export-ydpi="96" />
</svg>

<svg xmlns="http://www.w3.org/2000/svg" viewBox="0 0 24 24"><path d="M3 3v6h3c1.108 0 2-.892 2-2 0-.81-.497-1.498-1.188-1.813C6.918 4.982 7 4.748 7 4.5 7 3.669 6.331 3 5.5 3H4zm1 1h1.5a.499.499 0 110 1H4zm0 2h2c.554 0 1 .446 1 1s-.446 1-1 1H4zM6 14a3 3 0 000 6h1v-1H6a2 2 0 110-4h1v-1z" opacity=".6" stroke="#000" stroke-width="2" stroke-linejoin="round"/><path d="M3 3v6h3c1.108 0 2-.892 2-2 0-.81-.497-1.498-1.188-1.813C6.918 4.982 7 4.748 7 4.5 7 3.669 6.331 3 5.5 3H4zm1 1h1.5a.499.499 0 110 1H4zm0 2h2c.554 0 1 .446 1 1s-.446 1-1 1H4zM6 14a3 3 0 000 6h1v-1H6a2 2 0 110-4h1v-1z" fill="#fff"/><path fill="#924d8b" d="M11 5h11v2H11zM11 16h11v2H11z"/></svg>
